svg/u1f965.svg

<svg viewBox="0 0 128 128" xmlns="http://www.w3.org/2000/svg">
  <path d="M107.44,37.94l8.01-0.82c0,0,1.98,6.46,3.65,10.04c1.66,3.59,4.61,7.04,4.61,7.04 s-0.77,13.19-2.69,26.77s-7.06,18.26-8.69,20.65c-2.14,3.13-6.44,7.41-8.23,10.87s-3.05,4.98-3.82,5.11 c-0.77,0.13-8.69,2.39-13.3,3.29c-4.61,0.9-15.31,3.46-15.31,3.46s-8.53-1.88-10.58-2.14c-2.05-0.26-4.74,0.64-5.38,0.13 s-6.4-4.74-11.65-7.04s-9.48-2.82-9.99-3.84c-0.51-1.02-1.41-4.1-3.2-6.53c-1.79-2.43-3.52-4.06-3.52-4.06l7.37-21.17L107.44,37.94z " fill="#8E4D2F"/>
  <path d="M20.95,52.03c0,0,1.07-3.42-5.99-7.06c-4.44-2.29-8.56-1.71-8.56,0s3,0.64,6.42,4.92 s6.42,10.06,6.42,10.06L20.95,52.03z" fill="#8E4D2F"/>
  <path d="M27.24,38.41c0,0,1.41-2.72,1.31-5.06c-0.09-2.34-1.87-4.12-1.03-5.16c0.84-1.03,4.03,1.69,4.78,4.12 c0.92,3.01,0.84,4.41,0.84,4.41l-4.87,4.12L27.24,38.41z" fill="#8E4D2F"/>
  <path d="M79.64,15.84c0,0-2.06-1.5-1.97-6.09c0.06-3,0.66-5.34,1.69-5.25c1.03,0.09,1.31,2.16,2.44,5.53 c1.12,3.37,4.5,6.94,4.5,6.94L79.64,15.84z" fill="#8E4D2F"/>
  <path d="M105.51,25.96c0,0-0.28-6.47,0.37-9.84c0.52-2.65,2.16-4.12,3.09-3.47c0.58,0.41-0.28,1.22,0.28,6.66 c0.29,2.82,1.78,13.31,1.78,13.31L105.51,25.96z" fill="#8E4D2F"/>
  <path d="M17.94,85.14c0,0-1.5-1.12-6.09-2.53c-2.33-0.71-7.89-1.43-7.78,0c0.09,1.22,1.87,1.22,7.5,4.12 c5.62,2.91,10.12,7.69,10.12,7.41C21.69,93.86,17.94,85.14,17.94,85.14z" fill="#8E4D2F"/>
  <path d="M14.3,68.8c0,1.97-3.28,6.94-3.19,8.25c0.09,1.31,3.19,6.56,4.12,8.06c0.94,1.5,1.69,5.06,1.69,5.06 s3.09,4.41,5.44,6.56c2.34,2.16,4.97,4.12,4.97,4.12s3.47-0.37,8.06,0.37c4.59,0.75,3.02,1.69,9.68,2.07s8.12-0.66,16.08-1.79 s16.91-2.61,16.91-2.61s12.25-6.88,22.68-17.32c6.18-6.18,11.47-17.95,13.06-20.48s2.52-6.49,2.61-7.42 c0.09-0.94-1.65-7.86-1.65-10.86c0-3,0.82-4.55,0.68-5.7c-0.14-1.22-6.27-10.12-8.91-13.03c-2.62-2.89-9.56-9.09-11.16-8.44 c-1.59,0.66-1.59,0.66-1.59,0.66s-7.03-2.91-12.75-2.91s-7.97,1.02-11.34,1.12c-3,0.09-2.25-0.94-4.5-0.84 c-1.87,0.08-8.15,3.44-12.15,5.49c-3.54,1.82-10.91,4.54-13.63,6.88s-8.62,7.78-9.19,8.72c-0.56,0.94-1.03,2.91-1.03,2.91 s-5.53-0.84-6.66,0.19c-1.12,1.03-3.66,11.16-5.16,14.34s-5.81,12.65-5.16,13.4C12.89,66.36,14.3,68.8,14.3,68.8z" fill="#532D1D"/>
  <path d="M28.13,89.12c0,0-2.99-3.54-4.73-7.53c-2.07-4.72-2.8-12.1-1.92-16.97 c0.92-5.05,1.28-7.62,3.84-13.72c1.98-4.72,4.72-8.26,8.26-11.51c1.29-1.18,3.12-1,6.9-4.62s11.3-10.8,23.49-12.94 s16.15-1.02,21.6-0.18c3.86,0.59,5.61,3.07,8.25,4.05c2.63,0.99,5.03,1.4,7.92,3.8c2.04,1.69,3.73,3.86,4.23,6.33 c0.49,2.47-0.59,3.81-0.68,4.65c-0.14,1.41,3.09,2.44,2.54,9.92c-0.49,6.75-4.61,21.9-24.37,35.24s-43.63,9.39-43.63,9.39 s-0.78-3.53-4.1-5.55C31.41,86.88,28.13,89.12,28.13,89.12z" fill="#FEFFFF"/>
  <path d="M41.88,40.86c-15.12,12.18-13.7,26.29-13.7,26.29s-7.23,2.14-6.6,5.32c0.59,3.05,7.59,0.77,7.59,0.77 l0.82,3.46c0,0-7.84,2.49-5.93,6c1.38,2.54,13.65-3.54,13.65-3.54l57.82-32.55c0,0,11.57-6.35,9.05-10.07 c-1.95-2.88-6.12,0.66-6.12,0.66s-1.2-1.4-3.04-2.54c-1.68-1.04-3.45-2.1-3.45-2.1s4.87-4.11,2.07-6.25 c-2.8-2.14-6.92,3.79-6.92,3.79s-6.38-2.02-11.49-1.85c-5.1,0.16-10.58,1.18-10.58,1.18s-0.3-7.55-4.23-6.52 c-3.55,0.93-1.53,8.17-1.53,8.17S51.44,33.16,41.88,40.86z" fill="#E0E0E0"/>
  <path d="M47.78,80.49l-4.81,2.15c0,0-3.35,9.13,0.11,10.94c3.46,1.81,7.07-10.55,7.07-10.55L47.78,80.49z" fill="#E0E0E0"/>
  <path d="M75.77,72.42l-4.5,5.74c0,0,2.69,5.29,3.84,7.27c1.15,1.98,2.31,2.96,4.12,1.98 c1.81-0.99,1.98-2.63,0.82-4.94S75.77,72.42,75.77,72.42z" fill="#E1E1E1"/>
  <path d="M51.23,40.97C34.51,51.46,29.5,68.96,35.43,78.68s32.39,6.78,44.7-2.11 c13.37-9.65,20.06-21.24,17.26-31.4c-1.53-5.55-6.83-8.23-12.45-10.04C75.83,32.21,62.43,33.95,51.23,40.97z" fill="#B1B1B1"/>
  <path d="M92.89,100.96c-1.87,1.12,0,4.12,1.32,7.41c1.32,3.29,2.25,6.51,4.28,5.27 c1.91-1.17-0.33-5.76-1.32-7.9S94.94,99.74,92.89,100.96z" fill="#532D1D"/>
  <path d="M107.05,83.51c-2.48,0-2.14,2.8-2.96,7.57c-0.82,4.78-1.46,6.9,1.15,7.24 c1.71,0.23,1.71-3.33,2.47-8.07C108.26,86.83,109.03,83.51,107.05,83.51z" fill="#532D1D"/>
  <path d="M115.94,72.44c-1.64,0.09-1.28,3.93-1.23,9.02c0.04,3.79-0.53,8.52,1.74,8.31 c1.88-0.18,1.55-6.09,1.63-9.72C118.21,74.77,118.54,72.3,115.94,72.44z" fill="#532D1D"/>
  <path d="M70.5,109.19c-0.95,1.29,0.49,3.41,3.95,5.93c3.17,2.31,5.85,4.5,7.08,3.13 c1.79-1.99-1.03-3.68-4.12-6.26C74.29,109.38,71.96,107.21,70.5,109.19z" fill="#532D1D"/>
  <path d="M45.97,109.69c-1.13,1.81,1.83,3.88,5.27,6.75c2.96,2.47,6.05,5.55,7.74,3.62 c1.11-1.27-1.62-4.04-5.27-7.08C50.74,110.51,47.81,106.72,45.97,109.69z" fill="#532D1D"/>
</svg>

<svg viewBox="0 0 128 128" xmlns="http://www.w3.org/2000/svg">
  <defs/>
  <path d="M107.44,37.94 L115.45,37.12 C115.45,37.12 117.43,43.58 119.1,47.16 C120.76,50.75 123.71,54.2 123.71,54.2 C123.71,54.2 122.94,67.39 121.02,80.97 C119.1,94.55 113.96,99.23 112.33,101.62 C110.19,104.75 105.89,109.03 104.1,112.49 C102.31,115.95 101.05,117.47 100.28,117.6 C99.51,117.73 91.59,119.99 86.98,120.89 C82.37,121.79 71.67,124.35 71.67,124.35 C71.67,124.35 63.14,122.47 61.09,122.21 C59.04,121.95 56.35,122.85 55.71,122.34 C55.07,121.83 49.31,117.6 44.06,115.3 C38.81,113 34.58,112.48 34.07,111.46 C33.56,110.44 32.66,107.36 30.87,104.93 C29.08,102.5 27.35,100.87 27.35,100.87 L34.72,79.7 L107.44,37.94 Z" fill="#8E4D2F"/>
  <path d="M20.95,52.03 C20.95,52.03 22.02,48.61 14.96,44.97 C10.52,42.68 6.4,43.26 6.4,44.97 C6.4,46.68 9.4,45.61 12.82,49.89 C16.24,54.17 19.24,59.95 19.24,59.95 L20.95,52.03 Z" fill="#8E4D2F"/>
  <path d="M27.24,38.41 C27.24,38.41 28.65,35.69 28.55,33.35 C28.46,31.01 26.68,29.23 27.52,28.19 C28.36,27.16 31.55,29.88 32.3,32.31 C33.22,35.32 33.14,36.72 33.14,36.72 L28.27,40.84 L27.24,38.41 Z" fill="#8E4D2F"/>
  <path d="M79.64,15.84 C79.64,15.84 77.58,14.34 77.67,9.75 C77.73,6.75 78.33,4.41 79.36,4.5 C80.39,4.59 80.67,6.66 81.8,10.03 C82.92,13.4 86.3,16.97 86.3,16.97 L79.64,15.84 Z" fill="#8E4D2F"/>
  <path d="M105.51,25.96 C105.51,25.96 105.23,19.49 105.88,16.12 C106.4,13.47 108.04,12 108.97,12.65 C109.55,13.06 108.69,13.87 109.25,19.31 C109.54,22.13 111.03,32.62 111.03,32.62 L105.51,25.96 Z" fill="#8E4D2F"/>
  <path d="M17.94,85.14 C17.94,85.14 16.44,84.02 11.85,82.61 C9.52,81.9 3.96,81.18 4.07,82.61 C4.16,83.83 5.94,83.83 11.57,86.73 C17.19,89.64 21.69,94.42 21.69,94.14 C21.69,93.86 17.94,85.14 17.94,85.14 Z" fill="#8E4D2F"/>
  <path d="M14.3,68.8 C14.3,70.77 11.02,75.74 11.11,77.05 C11.2,78.36 14.3,83.61 15.23,85.11 C16.17,86.61 16.92,90.17 16.92,90.17 C16.92,90.17 20.01,94.58 22.36,96.73 C24.7,98.89 27.33,100.85 27.33,100.85 C27.33,100.85 30.8,100.48 35.39,101.22 C39.98,101.97 38.41,102.91 45.07,103.29 C51.73,103.67 53.19,102.63 61.15,101.5 C69.11,100.37 78.06,98.89 78.06,98.89 C78.06,98.89 90.31,92.01 100.74,81.57 C106.92,75.39 112.21,63.62 113.8,61.09 C115.39,58.56 116.32,54.6 116.41,53.67 C116.5,52.73 114.76,45.81 114.76,42.81 C114.76,39.81 115.58,38.26 115.44,37.11 C115.3,35.89 109.17,26.99 106.53,24.08 C103.91,21.19 96.97,14.99 95.37,15.64 C93.78,16.3 93.78,16.3 93.78,16.3 C93.78,16.3 86.75,13.39 81.03,13.39 C75.31,13.39 73.06,14.41 69.69,14.51 C66.69,14.6 67.44,13.57 65.19,13.67 C63.32,13.75 57.04,17.11 53.04,19.16 C49.5,20.98 42.13,23.7 39.41,26.04 C36.69,28.38 30.79,33.82 30.22,34.76 C29.66,35.7 29.19,37.67 29.19,37.67 C29.19,37.67 23.66,36.83 22.53,37.86 C21.41,38.89 18.87,49.02 17.37,52.2 C15.87,55.38 11.56,64.85 12.21,65.6 C12.89,66.36 14.3,68.8 14.3,68.8 Z" fill="#532D1D"/>
  <path d="M28.13,89.12 C28.13,89.12 25.14,85.58 23.4,81.59 C21.33,76.87 20.6,69.49 21.48,64.62 C22.4,59.57 22.76,57 25.32,50.9 C27.3,46.18 30.04,42.64 33.58,39.39 C34.87,38.21 36.7,38.39 40.48,34.77 C44.26,31.15 51.78,23.97 63.97,21.83 C76.16,19.69 80.12,20.81 85.57,21.65 C89.43,22.24 91.18,24.72 93.82,25.7 C96.45,26.69 98.85,27.1 101.74,29.5 C103.78,31.19 105.47,33.36 105.97,35.83 C106.46,38.3 105.38,39.64 105.29,40.48 C105.15,41.89 108.38,42.92 107.83,50.4 C107.34,57.15 103.22,72.3 83.46,85.64 C63.7,98.98 39.83,95.03 39.83,95.03 C39.83,95.03 39.05,91.5 35.73,89.48 C31.41,86.88 28.13,89.12 28.13,89.12 Z" fill="#FEFFFF"/>
  <path d="M41.88,40.86 C26.76,53.04 28.18,67.15 28.18,67.15 C28.18,67.15 20.95,69.29 21.58,72.47 C22.17,75.52 29.17,73.24 29.17,73.24 L29.99,76.7 C29.99,76.7 22.15,79.19 24.06,82.7 C25.44,85.24 37.71,79.16 37.71,79.16 L95.53,46.61 C95.53,46.61 107.1,40.26 104.58,36.54 C102.63,33.66 98.46,37.2 98.46,37.2 C98.46,37.2 97.26,35.8 95.42,34.66 C93.74,33.62 91.97,32.56 91.97,32.56 C91.97,32.56 96.84,28.45 94.04,26.31 C91.24,24.17 87.12,30.1 87.12,30.1 C87.12,30.1 80.74,28.08 75.63,28.25 C70.53,28.41 65.05,29.43 65.05,29.43 C65.05,29.43 64.75,21.88 60.82,22.91 C57.27,23.84 59.29,31.08 59.29,31.08 C59.29,31.08 51.44,33.16 41.88,40.86 Z" fill="#E0E0E0"/>
  <path d="M47.78,80.49 L42.97,82.64 C42.97,82.64 39.62,91.77 43.08,93.58 C46.54,95.39 50.15,83.03 50.15,83.03 L47.78,80.49 Z" fill="#E0E0E0"/>
  <path d="M75.77,72.42 L71.27,78.16 C71.27,78.16 73.96,83.45 75.11,85.43 C76.26,87.41 77.42,88.39 79.23,87.41 C81.04,86.42 81.21,84.78 80.05,82.47 C78.89,80.16 75.77,72.42 75.77,72.42 Z" fill="#E1E1E1"/>
  <path d="M51.23,40.97 C34.51,51.46 29.5,68.96 35.43,78.68 C41.36,88.4 67.82,85.46 80.13,76.57 C93.5,66.92 100.19,55.33 97.39,45.17 C95.86,39.62 90.56,36.94 84.94,35.13 C75.83,32.21 62.43,33.95 51.23,40.97 Z" fill="#B1B1B1"/>
  <path d="M92.89,100.96 C91.02,102.08 92.89,105.08 94.21,108.37 C95.53,111.66 96.46,114.88 98.49,113.64 C100.4,112.47 98.16,107.88 97.17,105.74 C96.18,103.6 94.94,99.74 92.89,100.96 Z" fill="#532D1D"/>
  <path d="M107.05,83.51 C104.57,83.51 104.91,86.31 104.09,91.08 C103.27,95.86 102.63,97.98 105.24,98.32 C106.95,98.55 106.95,94.99 107.71,90.25 C108.26,86.83 109.03,83.51 107.05,83.51 Z" fill="#532D1D"/>
  <path d="M115.94,72.44 C114.3,72.53 114.66,76.37 114.71,81.46 C114.75,85.25 114.18,89.98 116.45,89.77 C118.33,89.59 118,83.68 118.08,80.05 C118.21,74.77 118.54,72.3 115.94,72.44 Z" fill="#532D1D"/>
  <path d="M70.5,109.19 C69.55,110.48 70.99,112.6 74.45,115.12 C77.62,117.43 80.3,119.62 81.53,118.25 C83.32,116.26 80.5,114.57 77.41,111.99 C74.29,109.38 71.96,107.21 70.5,109.19 Z" fill="#532D1D"/>
  <path d="M45.97,109.69 C44.84,111.5 47.8,113.57 51.24,116.44 C54.2,118.91 57.29,121.99 58.98,120.06 C60.09,118.79 57.36,116.02 53.71,112.98 C50.74,110.51 47.81,106.72 45.97,109.69 Z" fill="#532D1D"/>
</svg>
